tower-fire.svg

<svg fill="currentColor" viewBox="0 0 24 24"><path d="M17 4v4h1v2h-.36L21 23h-2.07l-.56-2.17L12 17.15l-6.37 3.68L5.07 23H3l3.36-13H6V8h1V4H6V3l6-2 6 2v1zM7.28 14.43l-.95 3.69L10 16zM15.57 10H8.43l-.63 2.42 4.2 2.43 4.2-2.43zm2.1 8.12-.95-3.69L14 16z"/></svg>

<svg  viewBox="0 0 24 24" fill="currentColor"><path  d="M17,4V8H18V10H17.64L21,23H18.93L18.37,20.83L12,17.15L5.63,20.83L5.07,23H3L6.36,10H6V8H7V4H6V3L12,1L18,3V4H17M7.28,14.43L6.33,18.12L10,16L7.28,14.43M15.57,10H8.43L7.8,12.42L12,14.85L16.2,12.42L15.57,10M17.67,18.12L16.72,14.43L14,16L17.67,18.12Z"/></svg>
